X:1
T:Title
%%score { ( 1 3 ) | ( 2 4 ) }
L:1/8
Q:1/4=120
M:6/4
K:Ab
V:1 treble nm="Grand Piano"
V:3 treble 
V:2 bass 
V:4 bass 
V:1
 [Ec]2 [DB]2 [CA]2 [A,C]2 [B,D]2 [CE]2 | F2 =E2 G2 F6 | [CE]2 [CE]2 E2 A2 G2 [=DA]2 | [EB]12 | %4
w: B.~D.~Ackley * * * * *||||
 [Ec]2 [DB]2 [CA]2 [A,C]2 [B,D]2 [CE]2 | F2 =E2 G2 F6 | [=DB]2 [DB]2 [DB]2 [DB]2 [DF]2 [Dc]2 | %7
w: |||
 B4 c2 d6 | [Ec]2 [Fd]2 [Ec]2 z4 B,2 | G2 c2 B2 E6 | A2 A2 A2 A2 [=EG]2 [FA]2 | %11
w: ||||
 [=Dc]2 [DB]2 [DB]2 [EB]6 | [Ec]2 [Fd]2 [Ec]2 [=DB]2 [DF]2 [DF]2 | G2 A2 B2 c4 [_Ge]2 | %14
w: |||
 [Fe]2 [Fd]2 F2 G c3 B2 | A12 |] %16
w: ||
V:2
 [A,,A,]2 [A,,A,]2 [A,,A,]2 [A,,E,]2 [A,,E,]2 [A,,A,]2 | [D,A,D]2 [D,G,D]2 [D,B,D]2 [D,A,D]6 | %2
 [A,,A,]2 [A,,A,]2 [A,C]2 [F,B,=D]2 [F,B,D]2 [B,,F,]2 | [E,G,]12 | %4
 [A,,A,]2 [A,,A,]2 [A,,A,]2 [A,,E,]2 [A,,E,]2 [A,,A,]2 | [D,A,D]2 [D,G,D]2 [D,B,D]2 [D,A,D]6 | %6
 [B,,A,]2 [B,,A,]2 [B,,A,]2 [B,,F,]2 [B,,B,]2 [B,,A,]2 | [E,G,E]4 [E,A,E]2 [E,B,E]6 | %8
 [A,,A,]2 [A,,A,]2 [A,,A,]2 .[B,,A,]6 | [E,B,D]2 [E,G,D]2 [E,G,D]2 [A,C]6 | %10
 [F,CF]2 [F,CF]2 [F,CF]2 [F,CF]2 [C,C]2 [F,C]2 | [B,,A,]2 [B,,A,]2 [B,,A,]2 [E,G,]6 | %12
 [A,,A,]2 [A,,A,]2 [A,,A,]2 [B,,F,]2 [B,,B,]2 [B,,B,]2 | %13
 [E,B,D]2 [E,A,C]2 [E,G,E]2 [A,E]4 [C,A,]2 | [D,A,]2 [D,A,]2 [D,B,D]2 [E,B,D] [E,G,E]3 [E,G,D]2 | %15
 z2 E,2 F,2 E,6 |] %16
V:3
 x12 | x12 | x12 | x12 | x12 | x12 | x12 | x12 | z6 [=DF]6 | x12 | x12 | x12 | x12 | x12 | x12 | %15
 [A,C]2 C2 D2 C6 |] %16
V:4
 x12 | x12 | x12 | x12 | x12 | x12 | x12 | x12 | x12 | x12 | x12 | x12 | x12 | x12 | x12 | A,,12 |] %16

